Suru++-Ubuntu/apps/scalable/bluefish.svg

<svg width="256" height="256" version="1.1" viewBox="0 0 67.73 67.73" xmlns="http://www.w3.org/2000/svg" xmlns:xlink="http://www.w3.org/1999/xlink">
 <defs>
  <linearGradient id="linearGradient1108" x1="296" x2="296" y1="-212" y2="236" gradientUnits="userSpaceOnUse">
   <stop style="stop-color:#ffffff" offset="0"/>
   <stop style="stop-color:#ffffff;stop-opacity:.09803922" offset=".125"/>
   <stop style="stop-color:#000000;stop-opacity:.09803922" offset=".925"/>
   <stop style="stop-color:#000000;stop-opacity:.49803922" offset="1"/>
  </linearGradient>
  <clipPath id="clipPath1082-3-85">
   <path d="M 361.9375,-212 C 507.2348,-212 528,-191.28677 528,-46.125 V 70.125 C 528,215.28618 507.2348,236 361.9375,236 H 214.0625 C 68.7652,236 48,215.28618 48,70.125 V -46.125 C 48,-191.28677 68.7652,-212 214.0625,-212 Z" style="fill:#8c59d9"/>
  </clipPath>
  <linearGradient id="linearGradient1015" x1="24" x2="280" y1="36" y2="276" gradientTransform="matrix(.26970778 0 0 .26970778 -7.1289193 220.5605)" gradientUnits="userSpaceOnUse">
   <stop style="stop-color:#369ad4" offset="0"/>
   <stop style="stop-color:#b6e2f3" offset="1"/>
  </linearGradient>
  <filter id="filter1040" x="-.02" y="-.03" width="1.046" height="1.05" style="color-interpolation-filters:sRGB">
   <feGaussianBlur stdDeviation="2.32"/>
  </filter>
  <filter id="filter4569" x="-.01" y="-.01" width="1.023" height="1.025" style="color-interpolation-filters:sRGB">
   <feGaussianBlur stdDeviation="1.16"/>
  </filter>
 </defs>
 <g transform="translate(0,-229.26666)">
  <path transform="matrix(.26970778 0 0 .26970778 -7.1289177 220.56049)" d="m188.96876 43.999995c72.64865 0 83.03125 10.356615 83.03125 82.937505v58.125c0 72.58059-10.3826 82.9375-83.03125 82.9375h-73.9375c-72.648654 0-83.031254-10.35691-83.031254-82.9375v-58.125c0-72.58089 10.3826-82.937505 83.031254-82.937505z" style="filter:url(#filter4569);opacity:.1"/>
  <path transform="matrix(.26970778 0 0 .26970778 -7.1289177 220.56049)" d="m188.96876 45.999995c72.64865 0 83.03125 10.356615 83.03125 82.937505v58.125c0 72.58059-10.3826 82.9375-83.03125 82.9375h-73.9375c-72.648654 0-83.031254-10.35691-83.031254-82.9375v-58.125c0-72.58089 10.3826-82.937505 83.031254-82.937505z" style="filter:url(#filter1040);opacity:.2"/>
  <path d="m43.837424 232.42764c19.593907 0 22.394175 2.79326 22.394175 22.36889v15.67677c0 19.57555-2.800268 22.36888-22.394175 22.36888h-19.94152c-19.593906 0-22.394174-2.79333-22.394174-22.36888v-15.67677c0-19.57563 2.8002681-22.36889 22.394174-22.36889z" style="fill:url(#linearGradient1015)"/>
  <path d="m28.919212 244.83419-4.745168 9.66312v7.99009c-0.666168 0.78054-1.394285 1.56707-2.153449 2.32623-2.495217 2.49522-5.292704 4.67765-7.164112 5.30145l-3.15221-3.148-9.6631259 4.74518v23.01787h34.522595v-42.82454c-2.07899-4.51001-4.364969-6.19265-7.64453-7.0714zm-13.156681 30.88154c0.0011-5.3e-4 0.0032 5.3e-4 0.0042 0-0.352069 0.21986-0.708115 0.43513-1.066187 0.64899 0.358161-0.21383 0.70983-0.42916 1.061979-0.64899zm-3.249135 1.89638c0.0011-5.3e-4 0.0032 5.3e-4 0.0042 0-0.369748 0.20216-0.745556 0.40194-1.120973 0.59842 0.375469-0.19646 0.746964-0.39628 1.116766-0.59842z" style="fill-opacity:0;opacity:.05"/>
  <path d="m66.202719 250.11482v7.87845c0 3.15905-2.520038 5.72002-5.628713 5.72002h-53.472361c-3.1085467 0-5.6287096-2.56097-5.6287096-5.72016v-7.87844c2.0602268 2.27408 4.959034 3.58842 8.0647984 3.58842 3.1230872 0 6.0378222-1.32836 8.1000732-3.62646 2.062124 2.2981 4.976862 3.62646 8.099947 3.62646 3.123086 0 6.037821-1.32836 8.100071-3.62646 2.062259 2.2981 4.97698 3.62646 8.100073 3.62646 3.123092 0 6.037828-1.32836 8.100078-3.62646 2.062249 2.2981 4.976987 3.62646 8.100063 3.62646 3.105765 0 6.004583-1.31434 8.06468-3.58829z" style="fill:#a5ddd3"/>
  <path transform="matrix(.26458333 0 0 .26458333 0 229.26666)" d="m250.22852 92.537109c0.00876 1.420098 0.0957 2.483381 0.0957 3.953125v-4.039062c-0.02922 0.032054-0.0664 0.053984-0.0957 0.085937z" style="fill:#00aaaa"/>
  <path transform="matrix(.26458333 0 0 .26458333 0 229.26666)" d="m5.7558594 93.144531c-0.0248203-0.025908-0.055316-0.044335-0.0800782-0.070312v3.416015c0-1.243901 0.0738437-2.137409 0.0800782-3.345703z" style="fill:#00aaaa"/>
  <path transform="matrix(.26458333 0 0 .26458333 0 229.26666)" d="m5.7558594 93.144531c-0.0062345 1.208294-0.0800782 2.101802-0.0800782 3.345703v5.251956 54c0 9.24829 0.1655716 17.50559 0.5996094 24.875 0.2170189 3.6847 0.5009695 7.14668 0.8652344 10.40039 0.3642649 3.2537 0.8083678 6.29796 1.3457031 9.14648 0.5373354 2.84853 1.1680668 5.50155 1.9042969 7.97071 0.73623 2.46915 1.578113 4.75548 2.539063 6.87109 0.960949 2.11561 2.04046 4.05978 3.251953 5.84766 1.211492 1.78787 2.555108 3.41834 4.042968 4.90429 1.487861 1.48596 3.120104 2.82726 4.910157 4.03711 1.790053 1.20986 3.737399 2.28848 5.855468 3.24805 2.11807 0.95957 4.406996 1.80005 6.878907 2.53515 2.47191 0.73511 5.126939 1.3659 7.978515 1.90235 2.851577 0.53645 5.899184 0.98014 9.15625 1.34375s6.723729 0.64669 10.41211 0.86328c7.37676 0.43319 15.641473 0.59766 24.898437 0.59766h75.371097c9.25696 0 17.52167-0.16447 24.89843-0.59766 3.68838-0.21659 7.15505-0.49967 10.41211-0.86328 3.25707-0.36361 6.30468-0.8073 9.15625-1.34375 2.85158-0.53645 5.50661-1.16724 7.97852-1.90235 2.47191-0.7351 4.76084-1.57558 6.87891-2.53515s4.06541-2.03819 5.85546-3.24805c1.79006-1.20985 3.4223-2.55115 4.91016-4.03711 1.48786-1.48595 2.83148-3.11642 4.04297-4.90429 1.21149-1.78788 2.291-3.73205 3.25195-5.84766s1.80283-4.40194 2.53907-6.87109c0.73623-2.46916 1.36696-5.12218 1.90429-7.97071 0.53734-2.84852 0.98144-5.89278 1.34571-9.14648 0.36426-3.25371 0.64821-6.71569 0.86523-10.40039 0.43404-7.36941 0.59961-15.62671 0.59961-24.875v-54-5.251956c0-1.469744-0.08694-2.533027-0.0957-3.953125-7.80303 8.507931-18.70589 13.439451-30.39844 13.439451-11.84652 0-22.90205-5.03864-30.72461-13.755857-7.82257 8.717217-18.87999 13.755857-30.72656 13.755857-11.84658 0-22.90208-5.03864-30.72461-13.755857-7.82258 8.717217-18.87807 13.755857-30.724612 13.755857-11.846555 0-22.903992-5.03864-30.726563-13.755857-7.822571 8.717217-18.87805 13.755857-30.724609 13.755857-11.382352 0-21.967217-4.7367-29.722657-12.832029z" style="fill:#00aaaa"/>
  <g class="cls-1" transform="matrix(.42531946 0 0 .42531946 69.258288 224.32444)">
   <g class="cls-2" transform="translate(-9.0648121,-3.0699343)">
    <path class="cls-3" d="m-33.147045 108.39211v26a1.49 1.49 0 0 1-0.8 1.32 1.57 1.57 0 0 1-0.7 0.17 1.51 1.51 0 0 1-0.86-0.27c-1.34-0.93-2.77-1.89-4.21-2.85-2.25-1.49-4.43-2.97-6.43-4.37 3.15-3 5-5.67 5-7s-1.8-4-5-7c1.92-1.41 4.14-2.88 6.39-4.39 1.44-1 2.87-1.92 4.21-2.85a1.51 1.51 0 0 1 1.56-0.1 1.49 1.49 0 0 1 0.84 1.34z" style="fill:#416ba9"/>
    <path class="cls-4" d="m-65.147045 86.692111a0.5 0.5 0 0 0-0.48-0.3c-19.13 1-26.41 17.139999-26.52 17.299999a0.5 0.5 0 0 0 0.46 0.7h21a0.5 0.5 0 0 0 0.5-0.55c-1-10.619999 4.8-16.539999 4.86-16.599999a0.5 0.5 0 0 0 0.18-0.55z" style="fill:#94bdf7"/>
    <path class="cls-5" d="m-41.147045 121.39211c0 1.32-1.8 4-5 7a56 56 0 0 1-7.16 5.77 31.49 31.49 0 0 0-8.04-9.67 0.5 0.5 0 0 0-0.54 0c-8.78 4.84-19.65 4.9-19.76 4.9a0.5 0.5 0 0 0-0.42 0.23 0.48 0.48 0 0 0 0 0.48c2.53 5.48 8.62 9 17.64 10.16a49.66 49.66 0 0 1-19.22 4.13 39.91 39.91 0 0 1-10.5-1.31c3-5.46 5-13.16 5-21.69s-1.9-16.23-5-21.689999a39.91 39.91 0 0 1 10.5-1.31c15.94 0 30.3 8.999999 37.5 15.999999 3.2 3 5 5.68 5 7z" style="fill:#5490ef"/>
    <path class="cls-4" d="m-94.147045 99.702111c-15.710005 4.209999-21.000005 17.449999-21.000005 21.689999s5.29 17.48 21.000005 21.69c3.1-5.46 5-13.16 5-21.69s-1.9-16.23-5-21.689999z" style="fill:#94bdf7"/>
    <circle cx="-99.147" cy="114.392" r="4"/>
    <path class="cls-3" d="m-51.237045 140.18211a0.53 0.53 0 0 1-0.35 0.21 55.16 55.16 0 0 1-5.93 0.3 54.63 54.63 0 0 1-6.91-0.43c-9-1.17-15.11-4.68-17.64-10.16a0.48 0.48 0 0 1 0-0.48 0.5 0.5 0 0 1 0.42-0.23c0.11 0 11-0.06 19.76-4.94a0.5 0.5 0 0 1 0.54 0 31.49 31.49 0 0 1 8.09 9.66 23.15 23.15 0 0 1 2.11 5.67 0.52 0.52 0 0 1-0.09 0.4z" style="fill:#416ba9"/>
    <circle class="cls-5" cx="-109.147" cy="95.392" r="2" style="fill:#94bdf7"/>
    <circle class="cls-5" cx="-103.147" cy="87.392" r="2" style="fill:#94bdf7"/>
    <circle class="cls-5" cx="-110.147" cy="81.392" r="3" style="fill:#94bdf7"/>
   </g>
   <path transform="matrix(.62208142 0 0 .62208142 -162.83828 11.620019)" d="m249.0957 64.048828c-0.08763-0.917918-0.13707-1.947371-0.23632-2.833984-0.36427-3.253712-0.80837-6.297958-1.34571-9.146485-0.53733-2.848527-1.16806-5.501544-1.90429-7.970703-0.73624-2.469159-1.57812-4.755486-2.53907-6.871094-0.96095-2.115607-2.04046-4.059783-3.25195-5.847656-1.21149-1.787872-2.55511-3.418343-4.04297-4.904297-1.48786-1.485953-3.1201-2.827257-4.91016-4.037109-1.79005-1.209852-3.73739-2.288481-5.85546-3.248047s-4.407-1.800059-6.87891-2.535156-5.12694-1.365899-7.97852-1.902344c-2.85157-0.536445-5.89918-0.980141-9.15625-1.34375-3.25706-0.363609-6.72373-0.646692-10.41211-0.863281-4.42964-0.260118-9.85843-0.270331-14.95117-0.359375a45.669643 45.669643 0 0 0-4.47265 19.583984 45.669643 45.669643 0 0 0 45.66796 45.667969 45.669643 45.669643 0 0 0 32.26758-13.388672z" style="fill:#ffffff;opacity:.15"/>
   <path transform="matrix(.62208142 0 0 .62208142 -162.83828 11.620019)" d="m241.34766 34.126953c-0.51257-0.911223-0.95988-1.907715-1.5293-2.748047-1.21149-1.787872-2.55511-3.418343-4.04297-4.904297-1.48786-1.485953-3.1201-2.827257-4.91016-4.037109-1.79005-1.209852-3.73739-2.288481-5.85546-3.248047s-4.407-1.800059-6.87891-2.535156-5.12694-1.365899-7.97852-1.902344c-2.85157-0.536445-5.89918-0.980141-9.15625-1.34375-0.05193-0.005797-0.11398-0.007915-0.16601-0.013672a24.46483 24.46483 0 0 0-8.29102 18.316407 24.46483 24.46483 0 0 0 24.46485 24.464843 24.46483 24.46483 0 0 0 24.34375-22.048828z" style="fill:#ff7e30"/>
  </g>
  <path transform="matrix(.13485389 0 0 .13485389 -4.9712555 261.01666)" d="M 361.9375,-212 C 507.2348,-212 528,-191.28677 528,-46.125 V 70.125 C 528,215.28618 507.2348,236 361.9375,236 H 214.0625 C 68.7652,236 48,215.28618 48,70.125 V -46.125 C 48,-191.28677 68.7652,-212 214.0625,-212 Z" clip-path="url(#clipPath1082-3-85)" style="fill:none;opacity:.5;stroke-linecap:round;stroke-linejoin:round;stroke-width:8;stroke:url(#linearGradient1108)"/>
 </g>
</svg>

<svg xmlns="http://www.w3.org/2000/svg" xmlns:xlink="http://www.w3.org/1999/xlink" width="256" height="256" version="1.1" viewBox="0 0 67.73 67.73">
 <defs>
  <linearGradient id="linearGradient1108" x1="296" x2="296" y1="-212" y2="236" gradientUnits="userSpaceOnUse" xlink:href="#linearGradient1013"/>
  <linearGradient id="linearGradient1013">
   <stop offset="0" style="stop-color:#ffffff"/>
   <stop style="stop-color:#ffffff;stop-opacity:0.09803922" offset=".125"/>
   <stop style="stop-color:#000000;stop-opacity:0.09803922" offset=".925"/>
   <stop offset="1" style="stop-color:#000000;stop-opacity:0.49803922"/>
  </linearGradient>
  <clipPath id="clipPath1082-3-85" clipPathUnits="userSpaceOnUse">
   <path d="M 361.9375,-212 C 507.2348,-212 528,-191.28677 528,-46.125 V 70.125 C 528,215.28618 507.2348,236 361.9375,236 H 214.0625 C 68.7652,236 48,215.28618 48,70.125 V -46.125 C 48,-191.28677 68.7652,-212 214.0625,-212 Z" style="fill:#8c59d9"/>
  </clipPath>
  <linearGradient id="linearGradient1015" x1="24" x2="280" y1="36" y2="276" gradientTransform="matrix(0.26970778,0,0,0.26970778,-7.1289193,220.5605)" gradientUnits="userSpaceOnUse" xlink:href="#linearGradient4239"/>
  <linearGradient id="linearGradient4239">
   <stop offset="0" style="stop-color:#369ad4"/>
   <stop offset="1" style="stop-color:#b6e2f3"/>
  </linearGradient>
  <filter style="color-interpolation-filters:sRGB" id="filter1040" width="1.046" height="1.05" x="-.02" y="-.03">
   <feGaussianBlur stdDeviation="2.32"/>
  </filter>
  <filter style="color-interpolation-filters:sRGB" id="filter4569" width="1.023" height="1.025" x="-.01" y="-.01">
   <feGaussianBlur stdDeviation="1.16"/>
  </filter>
 </defs>
 <g transform="translate(0,-229.26666)">
  <path d="m 188.96876,43.999995 c 72.64865,0 83.03125,10.356615 83.03125,82.937505 v 58.125 c 0,72.58059 -10.3826,82.9375 -83.03125,82.9375 h -73.9375 C 42.382606,268 32.000006,257.64309 32.000006,185.0625 v -58.125 c 0,-72.58089 10.3826,-82.937505 83.031254,-82.937505 z" transform="matrix(0.26970778,0,0,0.26970778,-7.1289177,220.56049)" style="opacity:0.1;filter:url(#filter4569)"/>
  <path style="opacity:0.2;filter:url(#filter1040)" d="m 188.96876,45.999995 c 72.64865,0 83.03125,10.356615 83.03125,82.937505 v 58.125 c 0,72.58059 -10.3826,82.9375 -83.03125,82.9375 h -73.9375 C 42.382606,270 32.000006,259.64309 32.000006,187.0625 v -58.125 c 0,-72.58089 10.3826,-82.937505 83.031254,-82.937505 z" transform="matrix(0.26970778,0,0,0.26970778,-7.1289177,220.56049)"/>
  <path style="fill:url(#linearGradient1015)" d="m 43.837424,232.42764 c 19.593907,0 22.394175,2.79326 22.394175,22.36889 v 15.67677 c 0,19.57555 -2.800268,22.36888 -22.394175,22.36888 h -19.94152 c -19.5939061,0 -22.3941742,-2.79333 -22.3941742,-22.36888 v -15.67677 c 0,-19.57563 2.8002681,-22.36889 22.3941742,-22.36889 z"/>
  <path style="opacity:0.05;fill:#ff0000;fill-opacity:0" d="m 28.919212,244.83419 -4.745168,9.66312 v 7.99009 c -0.666168,0.78054 -1.394285,1.56707 -2.153449,2.32623 -2.495217,2.49522 -5.292704,4.67765 -7.164112,5.30145 l -3.15221,-3.148 -9.6631259,4.74518 v 23.01787 H 36.563742 v -42.82454 c -2.07899,-4.51001 -4.364969,-6.19265 -7.64453,-7.0714 z m -13.156681,30.88154 c 0.0011,-5.3e-4 0.0032,5.3e-4 0.0042,0 -0.352069,0.21986 -0.708115,0.43513 -1.066187,0.64899 0.358161,-0.21383 0.70983,-0.42916 1.061979,-0.64899 z m -3.249135,1.89638 c 0.0011,-5.3e-4 0.0032,5.3e-4 0.0042,0 -0.369748,0.20216 -0.745556,0.40194 -1.120973,0.59842 0.375469,-0.19646 0.746964,-0.39628 1.116766,-0.59842 z"/>
  <path style="fill:#a5ddd3" d="m 66.202719,250.11482 v 7.87845 c 0,3.15905 -2.520038,5.72002 -5.628713,5.72002 H 7.101645 c -3.1085467,0 -5.6287096,-2.56097 -5.6287096,-5.72016 v -7.87844 c 2.0602268,2.27408 4.959034,3.58842 8.0647984,3.58842 3.1230872,0 6.0378222,-1.32836 8.1000732,-3.62646 2.062124,2.2981 4.976862,3.62646 8.099947,3.62646 3.123086,0 6.037821,-1.32836 8.100071,-3.62646 2.062259,2.2981 4.97698,3.62646 8.100073,3.62646 3.123092,0 6.037828,-1.32836 8.100078,-3.62646 2.062249,2.2981 4.976987,3.62646 8.100063,3.62646 3.105765,0 6.004583,-1.31434 8.06468,-3.58829 z"/>
  <path style="fill:#00aaaa" d="M 250.22852 92.537109 C 250.23728 93.957207 250.32422 95.02049 250.32422 96.490234 L 250.32422 92.451172 C 250.295 92.483226 250.25782 92.505156 250.22852 92.537109 z" transform="matrix(0.26458333,0,0,0.26458333,0,229.26666)"/>
  <path style="fill:#00aaaa" d="M 5.7558594 93.144531 C 5.7310391 93.118623 5.7005434 93.100196 5.6757812 93.074219 L 5.6757812 96.490234 C 5.6757812 95.246333 5.7496249 94.352825 5.7558594 93.144531 z" transform="matrix(0.26458333,0,0,0.26458333,0,229.26666)"/>
  <path style="fill:#00aaaa" d="M 5.7558594 93.144531 C 5.7496249 94.352825 5.6757812 95.246333 5.6757812 96.490234 L 5.6757812 101.74219 L 5.6757812 155.74219 C 5.6757812 164.99048 5.8413528 173.24778 6.2753906 180.61719 C 6.4924095 184.30189 6.7763601 187.76387 7.140625 191.01758 C 7.5048899 194.27128 7.9489928 197.31554 8.4863281 200.16406 C 9.0236635 203.01259 9.6543949 205.66561 10.390625 208.13477 C 11.126855 210.60392 11.968738 212.89025 12.929688 215.00586 C 13.890637 217.12147 14.970148 219.06564 16.181641 220.85352 C 17.393133 222.64139 18.736749 224.27186 20.224609 225.75781 C 21.71247 227.24377 23.344713 228.58507 25.134766 229.79492 C 26.924819 231.00478 28.872165 232.0834 30.990234 233.04297 C 33.108304 234.00254 35.39723 234.84302 37.869141 235.57812 C 40.341051 236.31323 42.99608 236.94402 45.847656 237.48047 C 48.699233 238.01692 51.74684 238.46061 55.003906 238.82422 C 58.260972 239.18783 61.727635 239.47091 65.416016 239.6875 C 72.792776 240.12069 81.057489 240.28516 90.314453 240.28516 L 165.68555 240.28516 C 174.94251 240.28516 183.20722 240.12069 190.58398 239.6875 C 194.27236 239.47091 197.73903 239.18783 200.99609 238.82422 C 204.25316 238.46061 207.30077 238.01692 210.15234 237.48047 C 213.00392 236.94402 215.65895 236.31323 218.13086 235.57812 C 220.60277 234.84302 222.8917 234.00254 225.00977 233.04297 C 227.12784 232.0834 229.07518 231.00478 230.86523 229.79492 C 232.65529 228.58507 234.28753 227.24377 235.77539 225.75781 C 237.26325 224.27186 238.60687 222.64139 239.81836 220.85352 C 241.02985 219.06564 242.10936 217.12147 243.07031 215.00586 C 244.03126 212.89025 244.87314 210.60392 245.60938 208.13477 C 246.34561 205.66561 246.97634 203.01259 247.51367 200.16406 C 248.05101 197.31554 248.49511 194.27128 248.85938 191.01758 C 249.22364 187.76387 249.50759 184.30189 249.72461 180.61719 C 250.15865 173.24778 250.32422 164.99048 250.32422 155.74219 L 250.32422 101.74219 L 250.32422 96.490234 C 250.32422 95.02049 250.23728 93.957207 250.22852 92.537109 C 242.42549 101.04504 231.52263 105.97656 219.83008 105.97656 C 207.98356 105.97656 196.92803 100.93792 189.10547 92.220703 C 181.2829 100.93792 170.22548 105.97656 158.37891 105.97656 C 146.53233 105.97656 135.47683 100.93792 127.6543 92.220703 C 119.83172 100.93792 108.77623 105.97656 96.929688 105.97656 C 85.083133 105.97656 74.025696 100.93792 66.203125 92.220703 C 58.380554 100.93792 47.325075 105.97656 35.478516 105.97656 C 24.096164 105.97656 13.511299 101.23986 5.7558594 93.144531 z" transform="matrix(0.26458333,0,0,0.26458333,0,229.26666)"/>
  <g class="cls-1" transform="matrix(0.42531946,0,0,0.42531946,69.258288,224.32444)">
   <g class="cls-2" transform="translate(-9.0648121,-3.0699343)">
    <path class="cls-3" d="m -33.147045,108.39211 v 26 a 1.49,1.49 0 0 1 -0.8,1.32 1.57,1.57 0 0 1 -0.7,0.17 1.51,1.51 0 0 1 -0.86,-0.27 c -1.34,-0.93 -2.77,-1.89 -4.21,-2.85 -2.25,-1.49 -4.43,-2.97 -6.43,-4.37 3.15,-3 5,-5.67 5,-7 0,-1.33 -1.8,-4 -5,-7 1.92,-1.41 4.14,-2.88 6.39,-4.39 1.44,-1 2.87,-1.92 4.21,-2.85 a 1.51,1.51 0 0 1 1.56,-0.1 1.49,1.49 0 0 1 0.84,1.34 z" style="fill:#416ba9"/>
    <path class="cls-4" d="m -65.147045,86.692111 a 0.5,0.5 0 0 0 -0.48,-0.3 c -19.13,1 -26.41,17.139999 -26.52,17.299999 a 0.5,0.5 0 0 0 0.46,0.7 h 21 a 0.5,0.5 0 0 0 0.5,-0.55 c -1,-10.619999 4.8,-16.539999 4.86,-16.599999 a 0.5,0.5 0 0 0 0.18,-0.55 z" style="fill:#94bdf7"/>
    <path class="cls-5" d="m -41.147045,121.39211 c 0,1.32 -1.8,4 -5,7 a 56,56 0 0 1 -7.16,5.77 31.49,31.49 0 0 0 -8.04,-9.67 0.5,0.5 0 0 0 -0.54,0 c -8.78,4.84 -19.65,4.9 -19.76,4.9 a 0.5,0.5 0 0 0 -0.42,0.23 0.48,0.48 0 0 0 0,0.48 c 2.53,5.48 8.62,9 17.64,10.16 v 0 a 49.66,49.66 0 0 1 -19.22,4.13 39.91,39.91 0 0 1 -10.5,-1.31 c 3,-5.46 5,-13.16 5,-21.69 0,-8.53 -1.9,-16.23 -5,-21.689999 a 39.91,39.91 0 0 1 10.5,-1.31 c 15.94,0 30.3,8.999999 37.5,15.999999 3.2,3 5,5.68 5,7 z" style="fill:#5490ef"/>
    <path class="cls-4" d="m -94.147045,99.702111 c -15.710005,4.209999 -21.000005,17.449999 -21.000005,21.689999 0,4.24 5.29,17.48 21.000005,21.69 3.1,-5.46 5,-13.16 5,-21.69 0,-8.53 -1.9,-16.23 -5,-21.689999 z" style="fill:#94bdf7"/>
    <circle cx="-99.147" cy="114.392" r="4"/>
    <path class="cls-3" d="m -51.237045,140.18211 a 0.53,0.53 0 0 1 -0.35,0.21 55.16,55.16 0 0 1 -5.93,0.3 54.63,54.63 0 0 1 -6.91,-0.43 v 0 c -9,-1.17 -15.11,-4.68 -17.64,-10.16 a 0.48,0.48 0 0 1 0,-0.48 0.5,0.5 0 0 1 0.42,-0.23 c 0.11,0 11,-0.06 19.76,-4.94 a 0.5,0.5 0 0 1 0.54,0 31.49,31.49 0 0 1 8.09,9.66 23.15,23.15 0 0 1 2.11,5.67 0.52,0.52 0 0 1 -0.09,0.4 z" style="fill:#416ba9"/>
    <circle class="cls-5" cx="-109.147" cy="95.392" r="2" style="fill:#94bdf7"/>
    <circle class="cls-5" cx="-103.147" cy="87.392" r="2" style="fill:#94bdf7"/>
    <circle class="cls-5" cx="-110.147" cy="81.392" r="3" style="fill:#94bdf7"/>
   </g>
   <path style="opacity:0.15;fill:#ffffff" d="M 249.0957 64.048828 C 249.00807 63.13091 248.95863 62.101457 248.85938 61.214844 C 248.49511 57.961132 248.05101 54.916886 247.51367 52.068359 C 246.97634 49.219832 246.34561 46.566815 245.60938 44.097656 C 244.87314 41.628497 244.03126 39.34217 243.07031 37.226562 C 242.10936 35.110955 241.02985 33.166779 239.81836 31.378906 C 238.60687 29.591034 237.26325 27.960563 235.77539 26.474609 C 234.28753 24.988656 232.65529 23.647352 230.86523 22.4375 C 229.07518 21.227648 227.12784 20.149019 225.00977 19.189453 C 222.8917 18.229887 220.60277 17.389394 218.13086 16.654297 C 215.65895 15.9192 213.00392 15.288398 210.15234 14.751953 C 207.30077 14.215508 204.25316 13.771812 200.99609 13.408203 C 197.73903 13.044594 194.27236 12.761511 190.58398 12.544922 C 186.15434 12.284804 180.72555 12.274591 175.63281 12.185547 A 45.669643 45.669643 0 0 0 171.16016 31.769531 A 45.669643 45.669643 0 0 0 216.82812 77.4375 A 45.669643 45.669643 0 0 0 249.0957 64.048828 z" transform="matrix(0.62208142,0,0,0.62208142,-162.83828,11.620019)"/>
   <path style="fill:#ff7e30" d="M 241.34766 34.126953 C 240.83509 33.21573 240.38778 32.219238 239.81836 31.378906 C 238.60687 29.591034 237.26325 27.960563 235.77539 26.474609 C 234.28753 24.988656 232.65529 23.647352 230.86523 22.4375 C 229.07518 21.227648 227.12784 20.149019 225.00977 19.189453 C 222.8917 18.229887 220.60277 17.389394 218.13086 16.654297 C 215.65895 15.9192 213.00392 15.288398 210.15234 14.751953 C 207.30077 14.215508 204.25316 13.771812 200.99609 13.408203 C 200.94416 13.402406 200.88211 13.400288 200.83008 13.394531 A 24.46483 24.46483 0 0 0 192.53906 31.710938 A 24.46483 24.46483 0 0 0 217.00391 56.175781 A 24.46483 24.46483 0 0 0 241.34766 34.126953 z" transform="matrix(0.62208142,0,0,0.62208142,-162.83828,11.620019)"/>
  </g>
  <path d="M 361.9375,-212 C 507.2348,-212 528,-191.28677 528,-46.125 V 70.125 C 528,215.28618 507.2348,236 361.9375,236 H 214.0625 C 68.7652,236 48,215.28618 48,70.125 V -46.125 C 48,-191.28677 68.7652,-212 214.0625,-212 Z" clip-path="url(#clipPath1082-3-85)" transform="matrix(0.13485389,0,0,0.13485389,-4.9712555,261.01666)" style="opacity:0.5;fill:none;stroke:url(#linearGradient1108);stroke-width:8;stroke-linecap:round;stroke-linejoin:round"/>
 </g>
</svg>
